frontend/svgs/biz038.svg

<?xml version="1.0" encoding="UTF-8"?> <svg width="100px" height="100px" viewBox="0 0 100 100" version="1.1" xmlns="http://www.w3.org/2000/svg" xmlns:xlink="http://www.w3.org/1999/xlink"> <g id="38.-Certificate" stroke="none" stroke-width="1" fill="none" fill-rule="evenodd" stroke-linecap="round" stroke-linejoin="round"> <path d="M38.45842,86.9999998 C39.0244125,85.645179 41.3846154,84.5178263 41.3846154,83.0000115 C41.3846154,81.4327119 38.8680992,80.2817496 38.4087396,78.866764 C37.9332917,77.4006016 39.2758265,74.993891 38.3877874,73.7731338 C37.4916106,72.5406816 34.7809119,73.0790199 33.5487506,72.1814153 C32.3294039,71.2931665 32.0086659,68.5445915 30.5428495,68.0679086 C29.1281978,67.6087213 27.2591439,69.6294076 25.6922142,69.6294076 C24.5248889,69.6294076 23.1898881,68.5078962 22.0000002,68.1257633 L22,2 L73.5512207,2 L91,19.1718262 L91,87 L38.4584128,87 L38.45842,86.9999998 Z" id="Layer-1" stroke="#C8D6E5" stroke-width="4" fill="#C8D6E5"></path> <polygon id="Layer-5" stroke="#8DA1B7" stroke-width="4" fill="#8DA1B7" points="90 19 74 19 74 3"></polygon> <path d="M41.3846154,83.0000115 C41.3846154,84.5673112 38.8680057,85.7182734 38.4089267,87.1332591 C37.9334788,88.5994215 39.2761071,91.0061321 38.3879745,92.2268893 C37.9486317,92.8303446 37.0756521,93.0093229 36.1538462,93.1407732 C35.1925677,93.2768079 34.1777861,93.3605432 33.5489377,93.8186078 C32.3551265,94.6882383 32.0226964,97.3425995 30.6324578,97.897217 C30.6033679,97.9100345 30.5731555,97.9216358 30.5429431,97.9308982 C29.1282913,98.3913018 27.2592375,96.3706155 25.6923077,96.3706155 C24.1253779,96.3706155 22.2563241,98.3913018 20.8416723,97.9321145 C20.8114599,97.9228521 20.7812475,97.9111572 20.7521575,97.8984332 C19.3619189,97.342693 19.0294889,94.6883319 17.8356777,93.8186078 C17.2068293,93.3605432 16.1920477,93.2768079 15.2307692,93.1407732 C14.3089633,93.0094164 13.4360772,92.8303446 12.9966409,92.2268893 C12.1086018,91.0061321 13.4511366,88.5994215 12.9756887,87.1332591 C12.5165161,85.7182734 10,84.5672176 10,83.0000115 C10,81.4328055 12.5166097,80.2817496 12.9756887,78.866764 C13.4511366,77.4006016 12.1085083,74.993891 12.9966409,73.7731338 C13.8928177,72.5406816 16.6035164,73.0790199 17.8356777,72.1814153 C19.0550244,71.2931665 19.3758559,68.5445915 20.8415788,68.0679086 C22.2562305,67.6086277 24.1252844,69.6294076 25.6922142,69.6294076 C27.2591439,69.6294076 29.1281978,67.6087213 30.5428495,68.0679086 C32.0086659,68.5445915 32.3294039,71.2931665 33.5487506,72.1814153 C34.7809119,73.0790199 37.4916106,72.5406816 38.3877874,73.7731338 C39.2758265,74.993891 37.9332917,77.4006016 38.4087396,78.866764 C38.8680992,80.2817496 41.3846154,81.4327119 41.3846154,83.0000115 L41.3846154,83.0000115 Z" id="Layer-3" stroke="#FEB557" stroke-width="4" fill="#FEB557"></path> <path d="M34,47 L80,47" id="Layer-4" stroke="#A4B8CE" stroke-width="4"></path> <path d="M34,59 L80,59" id="Layer-5" stroke="#A4B8CE" stroke-width="4"></path> <path d="M34,35 L80,35" id="Layer-6" stroke="#A4B8CE" stroke-width="4"></path> </g> </svg>

<svg width="100" height="100" xmlns="http://www.w3.org/2000/svg"><g fill="none" fill-rule="evenodd" stroke-linecap="round" stroke-linejoin="round" stroke-width="4"><path d="M38.458 87c.566-1.355 2.927-2.482 2.927-4 0-1.567-2.517-2.718-2.976-4.133-.476-1.466.867-3.873-.021-5.094-.896-1.232-3.607-.694-4.84-1.592-1.219-.888-1.54-3.636-3.005-4.113-1.415-.46-3.284 1.561-4.85 1.561-1.168 0-2.503-1.121-3.693-1.503V2h51.551L91 19.172V87H38.458h0z" stroke="#C8D6E5" fill="#C8D6E5"/><path stroke="#8DA1B7" fill="#8DA1B7" d="M90 19H74V3z"/><path d="M41.385 83c0 1.567-2.517 2.718-2.976 4.133-.476 1.466.867 3.873-.021 5.094-.44.603-1.312.782-2.234.914-.961.136-1.976.22-2.605.678-1.194.87-1.526 3.524-2.917 4.078a.82.82 0 01-.09.034c-1.414.46-3.283-1.56-4.85-1.56-1.567 0-3.436 2.02-4.85 1.561a.84.84 0 01-.09-.034c-1.39-.555-1.723-3.21-2.916-4.08-.63-.457-1.644-.541-2.605-.677-.922-.132-1.795-.31-2.234-.914-.888-1.22.454-3.628-.021-5.094C12.516 85.718 10 84.567 10 83c0-1.567 2.517-2.718 2.976-4.133.475-1.466-.867-3.873.02-5.094.897-1.232 3.608-.694 4.84-1.592 1.219-.888 1.54-3.636 3.006-4.113 1.414-.46 3.283 1.561 4.85 1.561 1.567 0 3.436-2.02 4.85-1.561 1.467.477 1.787 3.225 3.007 4.113 1.232.898 3.943.36 4.839 1.592.888 1.22-.455 3.628.02 5.094.46 1.415 2.977 2.566 2.977 4.133h0z" stroke="#FEB557" fill="#FEB557"/><path d="M34 47h46M34 59h46M34 35h46" stroke="#A4B8CE"/></g></svg>
